X:1
T:Der evangelische Kirchenchor
T:Gelobet sei der Herr
T:Satz: Max Reger Melodie: Johann Crüger
T:Text: Johannes Olearius
T:Gelobet sei der Herr
T:Nr. 18 aus Der evangelische Kirchenchor, WoO VI/17 
T:CPDL - Creative Commons Attribution Non Commercial 3.0
T:CPDL - Creative Commons Attribution Non Commercial 3.0
C:Max Reger
Z:Johannes Olearius
Z:CPDL - Creative Commons Attribution Non Commercial 3.0
%%score [ ( 1 2 ) ( 3 4 ) ]
L:1/8
Q:1/4=120
M:4/4
K:G
V:1 treble nm="S\nA"
V:2 treble 
V:3 bass nm="T\nB"
V:4 bass 
V:1
"^Bewegt"!f!!<(! d2 | d2 d2 e2!<)! e2 | d6 B2 | c2 B2 A2!>(! B2 | A4 G2!>)! |!f!!<(! d2 | %6
w: 1.~Ge-|lo- bet sei der|Herr, mein|Gott, mein Licht, mein|Le- ben,|mein|
w: 2.~Ge-|lo- bet sei der|Herr, mein|Gott, der e- wig|le- bet,|den|
w: 3.~Dem|wir Hal- le- lu-|ja mit|Freu- den las- sen|klin- gen|und|
 d2 d2!<)! e2 e2 | d6 B2 | c2 B2 A2!>(! B2 | A4 G2!>)! |!f!!<(! A2 | A2 A2!<)! B2 B2 | A6 A2 | %13
w: Schöp- fer, der mir|hat mein'|Leib und Seel ge-|ge- ben,|mein|Va- ter, der mich|schützt von|
w: al- les rühmt und|lobt, was|durch ihn lebt und|we- bet;|ge-|lo- bet sei der|Herr, des|
w: mit der En- gel|Schar das|Hei- lig, Hei- lig|sin- gen,|den|herz- lich lobt und|preist die|
 B2!>(! d2 d2 ^c2 | d6!>)! |!mf!!<(! d2 | e2 d2!<)! c2!>(! B2 | c6!>)!!f!!<(! B2 | %18
w: Mut- ter- lei- be|an,|der|al- le Au- gen-|blick viel|
w: Na- me hei- lig|heißt,|Gott|Va- ter, Gott der|Sohn und|
w: gan- ze Chris- ten-|heit,|ge-|lo- bet sei mein|Gott in|
 A2!<)! G2[Q:1/4=110]"^poco rit."!>(! G2 F2 | !fermata!G6!>)! |] %20
w: Guts an mir ge-|tan.|
w: Gott der wer- te|Geist.|
w: al- le E- wig-|keit.|
V:2
 G2 | A2 G2 G2 G2 | G6 F2 | G2 G2 F2 G2 | (G2 F2) D2 | G2 | A2 G2 G2 G2 | G6 F2 | G2 G2 F2 G2 | %9
 (G2 F2) D2 | D2 | E2 D2 D2 D2 | D6 D2 | G2 A2 G2 G2 | F6 | G2 | G2 =F2 E2 D2 | E6 ED | %18
 CD E2 E2 D2 | D6 |] %20
V:3
 B,2 | D2 B,2 C2 C2 | B,6 D2 | E2 D2 D2 D2 | (E2 DC) B,2 | B,2 | D2 B,2 C2 C2 | B,6 D2 | %8
 E2 D2 D2 D2 | (E2 DC) B,2 | F,2 | A,G, F,2 G,2 G,2 | F,6 A,2 | D2 D2 E2 E2 | D6 | B,2 | %16
 C2 A,2 G,2 G,2 | G,6 G,2 | A,B, C2 CB, A,2 | B,6 |] %20
V:4
 G,2 | F,2 G,2 C,2 E,2 | G,6 B,2 | E,F, G,2 D,2 B,,2 | (C,2 D,2) G,,2 | G,2 | F,2 G,2 C,2 E,2 | %7
 G,6 B,2 | E,F, G,2 D,2 B,,2 | (C,2 D,2) G,,2 | D,2 | ^C,2 D,2 G,,2 B,,2 | D,6 F,2 | %13
 G,2 F,2 E,2 A,2 | D,6 | G,2 | =C,2 D,2 E,=F, G,2 | C,6 E,2 | =F,2 C,B,, A,,2 D,2 | %19
 !fermata!G,,6 |] %20

